packages/icon-set-extra/svg/main/logo-markdown.svg

<svg viewBox="0 0 512 512" xmlns="http://www.w3.org/2000/svg"><path d="m475 64h-438c-20.42 0-37 17.38-37 38.77v306.42c0 21.4 16.58 38.81 37 38.81h438c20.38 0 37-17.41 37-38.81v-306.42c0-21.39-16.58-38.77-37-38.77zm-187 304h-64v-112l-48 64-48-64v112h-64v-224h64l48 80 48-80h64zm96 0-80-112h48.05l-.05-112h64v112h48z"/></svg>

<svg xmlns="http://www.w3.org/2000/svg" viewBox="0 0 512 512"><path d="M475 64H37C16.58 64 0 81.38 0 102.77v306.42C0 430.59 16.58 448 37 448h438c20.38 0 37-17.41 37-38.81V102.77C512 81.38 495.42 64 475 64zM288 368h-64V256l-48 64-48-64v112H64V144h64l48 80 48-80h64zm96 0-80-112h48.05L352 144h64v112h48z"/></svg>
